src/assets/duotone/VolumeMute.svg

<svg width="24" height="24" viewBox="0 0 24 24"  xmlns="http://www.w3.org/2000/svg">
<path opacity="0.4" d="M19.25 7.40997V16.59C19.25 18.31 18.63 19.6 17.52 20.22C17.07 20.47 16.57 20.59 16.05 20.59C15.25 20.59 14.39 20.32 13.51 19.77L10.59 17.94C10.39 17.82 10.16 17.75 9.93 17.75H9V6.24997H9.93C10.16 6.24997 10.39 6.17997 10.59 6.05997L13.51 4.22997C14.97 3.31997 16.4 3.15997 17.52 3.77997C18.63 4.39997 19.25 5.68997 19.25 7.40997Z" />
<path d="M9 6.25V17.75H8.5C6.08 17.75 4.75 16.42 4.75 14V10C4.75 7.58 6.08 6.25 8.5 6.25H9Z" />
</svg>

<?xml version="1.0" encoding="UTF-8"?>
<svg width="24" height="24" viewBox="0 0 24 24" xmlns="http://www.w3.org/2000/svg">
 <path d="m19.25 7.41v9.18c0 1.72-0.62 3.01-1.73 3.63-0.45 0.25-0.95 0.37-1.47 0.37-0.8 0-1.66-0.27-2.54-0.82l-2.92-1.83c-0.2-0.12-0.43-0.19-0.66-0.19h-0.93v-11.5h0.93c0.23 0 0.46-0.07 0.66-0.19l2.92-1.83c1.46-0.91 2.89-1.07 4.01-0.45 1.11 0.62 1.73 1.91 1.73 3.63z" opacity=".4"/>
 <path d="m9 6.25v11.5h-0.5c-2.42 0-3.75-1.33-3.75-3.75v-4c0-2.42 1.33-3.75 3.75-3.75h0.5z"/>
</svg>
